X:72
T:Farewell to Whiskey
B:Terry "Cuz" Teahan "Sliabh Luachra on Parade" 1980
Z:Patrick Cavanagh
M:2/4
L:1/8
R:Polka
K:G
E | DG GB | A/B/A/G/ EG | DG GA | B/c/B/A/ Bd | 
e/f/g/e/ dB | c/B/A/G/ AB | DG A/G/A | BG G :| 
| B/c/ | dB gB | dB AB | dB gf | ef g2 | 
e/f/g/e/ dB | c/B/A/G/ AB | DG A/G/A | BG G :|| 

